X: 20629
T: John Ryan's
R: polka
M: 2/4
K: Dmajor
dd Bd/B/|AF AF|dd B/c/d/B/|AF ED|
dd B/c/d/B/|AF Ad/e/|fd ec|d2 d2|
d2 Bd/B/|AF A/B/c|d2 B/c/d|AF E/F/E/D/|
dd B2|A/B/A/F/ A>e|fd ec|d>A B/c/d/e/||
fd- de/f/|g/a/g/f/ ed/e/|fd ad/e/|fd/f/ aa/g/|
fd d>f|gf e2|fd e/d/c|d2 de|
f2 fd/f/|gf ed|fd Ad|fd/f/ a/b/a/g/|
f/g/f/e/ de/f/|g>f ea/g/|f2 e/d/c|d4||

